src/images_karasa_jaga_svg/cmd/32/arrowshapes.up-right-arrow.svg

<svg height="32" viewBox="0 0 32 32" width="32" xmlns="http://www.w3.org/2000/svg" xmlns:xlink="http://www.w3.org/1999/xlink"><linearGradient id="a"><stop offset="0" stop-color="#fff"/><stop offset=".46428573" stop-color="#fff"/><stop offset=".60714287" stop-color="#f1f1f1"/><stop offset=".90625" stop-color="#eaeaea"/><stop offset="1" stop-color="#dfdfdf"/></linearGradient><linearGradient id="b"><stop offset="0" stop-color="#7c9fcf"/><stop offset=".5" stop-color="#7c9ece"/><stop offset="1" stop-color="#7b9dcf"/></linearGradient><linearGradient id="c" gradientTransform="matrix(.42447771 0 0 .25739099 16.55829 50.260194)" gradientUnits="userSpaceOnUse" x1="102.34156" x2="102.34156" xlink:href="#a" y1="208.78667" y2="-102.02453"/><linearGradient id="d" gradientTransform="matrix(0 1 -1 0 123.999996 4.000002)" gradientUnits="userSpaceOnUse" x1="33.044144" x2="90.622231" xlink:href="#b" y1="61.999203" y2="61.999203"/><linearGradient id="e" gradientUnits="userSpaceOnUse" x1="37.044147" x2="94.622231" xlink:href="#b" y1="65.999237" y2="65.999237"/><linearGradient id="f" gradientTransform="matrix(0 -.42447771 .25739099 0 50.260194 111.44174)" gradientUnits="userSpaceOnUse" x1="-20.16186" x2="243.6918" xlink:href="#a" y1="68.921631" y2="68.921631"/><g fill-rule="evenodd" transform="scale(.25)"><path d="m65.207033 2.460972c-1.253393.016835-2.504866.5204924-3.435547 1.4511719l-23.257812 23.2578121c-3.066037 3.066037-1.077508 8.90039 3.58789 8.90039h9.828126l.07031 43.929654h28.140624l-.07031-43.929654h9.185547c2.583179.04122 4.089886-1.481054 4.88086-3.128906.790973-1.647852.719807-4.401292-.998047-6.11914l-22.929688-22.9296874c-1.195684-1.1956833-1.570154-1.0020713-1.882812-1.0917969-.312659-.089726-.509577-.1216955-.695313-.1523437-.371471-.061297-.672823-.090038-.96875-.1152344-.591853-.050393-.715567-.082194-1.455078-.0722656z" fill="url(#e)"/><path d="m125.53906 65.207033c-.0168-1.253393-.52049-2.504866-1.45117-3.435547l-23.25782-23.257812c-3.066032-3.066037-8.900386-1.077508-8.900386 3.58789v9.828126l-39.929684-.070314v28.140624l39.929684.07031v9.185547c-.04122 2.583179 1.481054 4.089886 3.128906 4.88086 1.647852.790973 4.401292.719807 6.11914-.998047l22.92969-22.929688c1.19568-1.195684 1.00207-1.570154 1.09179-1.882812.0897-.312659.1217-.509577.15235-.695313.0613-.371471.09-.672823.11523-.96875.0504-.591853.0822-.715567.0723-1.455078z" fill="url(#d)"/><path d="m121.46878 65.261719c-.003-.219639-.0896-.441178-.25977-.611328l-23.257808-23.257812c-.741828-.741828-1.951172-.154145-1.951172.708984v13.898437h-40l-.00003 20h40v13.320313c-.01501.940773 1.436698 1.801586 2.298828.939453l22.929682-22.929687c.16385-.163848.24322-1.848721.24027-2.06836z" fill="url(#c)"/><path d="m65.261719 6.5312507c-.219639.00295-.441178.089616-.611328.2597657l-23.257812 23.2578116c-.741828.741828-.154145 1.951172.708984 1.951172h13.898437v44l20 .00003v-44h13.320313c.940773.01501 1.801586-1.436698.939453-2.298828l-22.929687-22.9296869c-.163848-.1638479-1.848721-.2432133-2.06836-.2402644z" fill="url(#f)"/></g></svg>

<?xml version="1.0" encoding="UTF-8" standalone="no"?>
<!-- Created with Inkscape (http://www.inkscape.org/) -->

<svg
   xmlns:dc="http://purl.org/dc/elements/1.1/"
   xmlns:cc="http://creativecommons.org/ns#"
   xmlns:rdf="http://www.w3.org/1999/02/22-rdf-syntax-ns#"
   xmlns:svg="http://www.w3.org/2000/svg"
   xmlns="http://www.w3.org/2000/svg"
   xmlns:xlink="http://www.w3.org/1999/xlink"
   xmlns:sodipodi="http://sodipodi.sourceforge.net/DTD/sodipodi-0.dtd"
   xmlns:inkscape="http://www.inkscape.org/namespaces/inkscape"
   version="1.1"
   id="svg2"
   width="128"
   height="128"
   viewBox="0 0 128 128"
   sodipodi:docname="arrowshapes.up-right-arrow.svg"
   inkscape:export-filename="/home/rizmut/Dokumen/Rizmut/Github/libreoffice-style-karasa-jaga/build/images_karasa_jaga/cmd/32/arrowshapes.up-right-arrow.png"
   inkscape:export-xdpi="24"
   inkscape:export-ydpi="24"
   inkscape:version="0.92.3 (unknown)">
  <metadata
     id="metadata8">
    <rdf:RDF>
      <cc:Work
         rdf:about="">
        <dc:format>image/svg+xml</dc:format>
        <dc:type
           rdf:resource="http://purl.org/dc/dcmitype/StillImage" />
        <dc:title></dc:title>
      </cc:Work>
    </rdf:RDF>
  </metadata>
  <defs
     id="defs6">
    <inkscape:perspective
       id="perspective27"
       inkscape:persp3d-origin="64 : 42.666667 : 1"
       inkscape:vp_z="128 : 64 : 1"
       inkscape:vp_y="0 : 1000 : 0"
       inkscape:vp_x="0 : 64 : 1"
       sodipodi:type="inkscape:persp3d" />
    <linearGradient
       id="linearGradient3369">
      <stop
         id="stop3372"
         offset="0"
         style="stop-color:#ffffff;stop-opacity:1;" />
      <stop
         style="stop-color:#ffffff;stop-opacity:1;"
         offset="0.46428573"
         id="stop3374" />
      <stop
         style="stop-color:#f1f1f1;stop-opacity:1;"
         offset="0.60714287"
         id="stop3376" />
      <stop
         id="stop3378"
         offset="0.90625"
         style="stop-color:#eaeaea;stop-opacity:1;" />
      <stop
         id="stop3384"
         offset="1"
         style="stop-color:#dfdfdf;stop-opacity:1;" />
    </linearGradient>
    <linearGradient
       id="linearGradient7422">
      <stop
         style="stop-color:#7c9fcf;stop-opacity:1"
         offset="0"
         id="stop7424" />
      <stop
         id="stop5348"
         offset="0.5"
         style="stop-color:#7c9ece;stop-opacity:1" />
      <stop
         id="stop7426"
         offset="1"
         style="stop-color:#7b9dcf;stop-opacity:1" />
    </linearGradient>
    <linearGradient
       y2="388.95178"
       x2="399.77466"
       y1="1324.7792"
       x1="405.94968"
       gradientTransform="matrix(0.08097132,0,0,0.07807154,182.74486,-6.9021226)"
       gradientUnits="userSpaceOnUse"
       id="linearGradient2330"
       xlink:href="#linearGradient7422"
       inkscape:collect="always" />
    <linearGradient
       y2="-102.02453"
       x2="102.34156"
       y1="208.78667"
       x1="102.34156"
       gradientTransform="matrix(0.42447771,0,0,0.25739099,16.55829,50.260194)"
       gradientUnits="userSpaceOnUse"
       id="linearGradient2360"
       xlink:href="#linearGradient3369"
       inkscape:collect="always" />
    <linearGradient
       inkscape:collect="always"
       xlink:href="#linearGradient7422"
       id="linearGradient846"
       x1="33.044144"
       y1="61.999203"
       x2="90.622231"
       y2="61.999203"
       gradientUnits="userSpaceOnUse"
       gradientTransform="rotate(90,59.999997,63.999999)" />
    <linearGradient
       inkscape:collect="always"
       xlink:href="#linearGradient7422"
       id="linearGradient878"
       gradientUnits="userSpaceOnUse"
       x1="33.044144"
       y1="61.999203"
       x2="90.622231"
       y2="61.999203"
       gradientTransform="translate(4.0000016,4.0000345)" />
    <linearGradient
       inkscape:collect="always"
       xlink:href="#linearGradient3369"
       id="linearGradient880"
       gradientUnits="userSpaceOnUse"
       gradientTransform="matrix(0,-0.42447771,0.25739099,0,50.260194,111.44174)"
       x1="-20.16186"
       y1="68.921631"
       x2="243.6918"
       y2="68.921631" />
  </defs>
  <sodipodi:namedview
     pagecolor="#ffffff"
     bordercolor="#666666"
     borderopacity="1"
     objecttolerance="10"
     gridtolerance="10"
     guidetolerance="10"
     inkscape:pageopacity="0"
     inkscape:pageshadow="2"
     inkscape:window-width="1366"
     inkscape:window-height="706"
     id="namedview4"
     showgrid="true"
     inkscape:snap-page="true"
     inkscape:snap-global="true"
     inkscape:zoom="6.9280309"
     inkscape:cx="66.462909"
     inkscape:cy="71.519783"
     inkscape:window-x="0"
     inkscape:window-y="0"
     inkscape:window-maximized="1"
     inkscape:current-layer="svg2"
     showguides="false">
    <inkscape:grid
       type="xygrid"
       id="grid837"
       spacingx="4"
       spacingy="4"
       empspacing="1" />
  </sodipodi:namedview>
  <path
     sodipodi:nodetypes="cssscccccscsscsc"
     inkscape:connector-curvature="0"
     id="path872"
     d="M 65.207033,2.460972 C 63.95364,2.477807 62.702167,2.9814644 61.771486,3.9121439 L 38.513674,27.169956 c -3.066037,3.066037 -1.077508,8.90039 3.58789,8.90039 H 51.92969 L 52,80 h 28.140624 l -0.07031,-43.929654 h 9.185547 c 2.583179,0.04122 4.089886,-1.481054 4.88086,-3.128906 0.790973,-1.647852 0.719807,-4.401292 -0.998047,-6.11914 L 70.208986,3.8926126 C 69.013302,2.6969293 68.638832,2.8905413 68.326174,2.8008157 68.013515,2.7110897 67.816597,2.6791202 67.630861,2.648472 67.25939,2.587175 66.958038,2.558434 66.662111,2.5332376 66.070258,2.4828446 65.946544,2.4510436 65.207033,2.460972 Z"
     style="fill:url(#linearGradient878);fill-opacity:1;fill-rule:evenodd;stroke:none;stroke-width:4.6329999;stroke-linecap:round;stroke-linejoin:round;stroke-miterlimit:4;stroke-dasharray:none;stroke-opacity:1" />
  <path
     style="fill:url(#linearGradient846);fill-opacity:1;fill-rule:evenodd;stroke:none;stroke-width:4.6329999;stroke-linecap:round;stroke-linejoin:round;stroke-miterlimit:4;stroke-dasharray:none;stroke-opacity:1"
     d="m 125.53906,65.207033 c -0.0168,-1.253393 -0.52049,-2.504866 -1.45117,-3.435547 L 100.83007,38.513674 c -3.066032,-3.066037 -8.900386,-1.077508 -8.900386,3.58789 V 51.92969 L 52,51.859376 V 80 l 39.929684,0.07031 v 9.185547 c -0.04122,2.583179 1.481054,4.089886 3.128906,4.88086 1.647852,0.790973 4.401292,0.719807 6.11914,-0.998047 l 22.92969,-22.929688 c 1.19568,-1.195684 1.00207,-1.570154 1.09179,-1.882812 0.0897,-0.312659 0.1217,-0.509577 0.15235,-0.695313 0.0613,-0.371471 0.09,-0.672823 0.11523,-0.96875 0.0504,-0.591853 0.0822,-0.715567 0.0723,-1.455078 z"
     id="path836"
     inkscape:connector-curvature="0"
     sodipodi:nodetypes="cssscccccscsscscc" />
  <path
     inkscape:connector-curvature="0"
     id="rect2326"
     d="m 121.46878,65.261719 c -0.003,-0.219639 -0.0896,-0.441178 -0.25977,-0.611328 L 97.951202,41.392579 C 97.209374,40.650751 96.00003,41.238434 96.00003,42.101563 V 56 h -40 L 56,76 h 40 v 13.320313 c -0.01501,0.940773 1.436698,1.801586 2.298828,0.939453 L 121.22851,67.330079 c 0.16385,-0.163848 0.24322,-1.848721 0.24027,-2.06836 z"
     style="fill:url(#linearGradient2360);fill-opacity:1;fill-rule:evenodd;stroke:none;stroke-width:4.6329999;stroke-linecap:round;stroke-linejoin:round;stroke-miterlimit:4;stroke-dasharray:none;stroke-opacity:1"
     sodipodi:nodetypes="csssccccccsc" />
  <path
     sodipodi:nodetypes="csssccccccsc"
     style="fill:url(#linearGradient880);fill-opacity:1;fill-rule:evenodd;stroke:none;stroke-width:4.6329999;stroke-linecap:round;stroke-linejoin:round;stroke-miterlimit:4;stroke-dasharray:none;stroke-opacity:1"
     d="m 65.261719,6.5312507 c -0.219639,0.00295 -0.441178,0.089616 -0.611328,0.2597657 L 41.392579,30.048828 C 40.650751,30.790656 41.238434,32 42.101563,32 H 56 v 44 l 20,3e-5 v -44 h 13.320313 c 0.940773,0.01501 1.801586,-1.436698 0.939453,-2.298828 L 67.330079,6.7715151 C 67.166231,6.6076672 65.481358,6.5283018 65.261719,6.5312507 Z"
     id="path874"
     inkscape:connector-curvature="0" />
</svg>
